Sources/FrostedUI/Resources/Icons.xcassets/sparkleFilled32.imageset/sparkle-filled-32.svg

<svg width="32" height="32" viewBox="0 0 32 32" fill="none" xmlns="http://www.w3.org/2000/svg" data-fui-icon="true">
  <path
    d="M23.0002 15.9993C22.4192 15.9993 21.9037 16.3742 21.7249 16.927L20.552 20.552L16.927 21.7249C16.3742 21.9037 15.9993 22.4192 15.9993 23.0002C15.9994 23.5811 16.3743 24.0958 16.927 24.2747L20.552 25.4475L21.7249 29.0725C21.9037 29.6253 22.4192 30.0002 23.0002 30.0002C23.5811 30.0001 24.0958 29.6252 24.2747 29.0725L25.4475 25.4475L29.0725 24.2747C29.6252 24.0958 30.0001 23.5811 30.0002 23.0002C30.0002 22.4192 29.6253 21.9037 29.0725 21.7249L25.4475 20.552L24.2747 16.927C24.0958 16.3743 23.5811 15.9994 23.0002 15.9993ZM11.5657 1.99927C10.7693 1.99947 10.0632 2.51251 9.81665 3.26978L8.34985 7.77466C8.26109 8.04729 8.04729 8.26109 7.77466 8.34985L3.26978 9.81665C2.51235 10.0633 1.99927 10.7701 1.99927 11.5667C1.99946 12.363 2.5125 13.0691 3.26978 13.3157L7.77466 14.7825C8.04729 14.8712 8.26109 15.085 8.34985 15.3577L9.81665 19.8625C10.0632 20.6198 10.7693 21.1329 11.5657 21.1331C12.3622 21.1331 13.0691 20.62 13.3157 19.8625L14.7825 15.3577C14.8712 15.085 15.085 14.8712 15.3577 14.7825L19.8625 13.3157C20.6198 13.0691 21.1329 12.363 21.1331 11.5667C21.1331 10.7701 20.62 10.0633 19.8625 9.81665L15.3577 8.34985C15.085 8.26109 14.8712 8.04729 14.7825 7.77466L13.3157 3.26978C13.0691 2.51236 12.3622 1.99927 11.5657 1.99927Z"
    fill="currentColor"
  />
</svg>

<svg xmlns="http://www.w3.org/2000/svg" width="32" height="32" fill="none" data-fui-icon="true" viewBox="0 0 32 32"><path fill="currentColor" d="M23 16a1.34 1.34 0 0 0-1.275.927l-1.173 3.625-3.625 1.173a1.34 1.34 0 0 0 0 2.55l3.625 1.173 1.173 3.625a1.34 1.34 0 0 0 2.55 0l1.173-3.625 3.625-1.173a1.34 1.34 0 0 0 0-2.55l-3.625-1.173-1.173-3.625A1.34 1.34 0 0 0 23 15.999M11.566 2a1.84 1.84 0 0 0-1.75 1.27L8.35 7.775a.9.9 0 0 1-.575.575L3.27 9.817a1.841 1.841 0 0 0 0 3.499l4.505 1.467a.9.9 0 0 1 .575.575l1.467 4.505a1.84 1.84 0 0 0 3.499 0l1.467-4.505a.9.9 0 0 1 .575-.575l4.505-1.467a1.84 1.84 0 0 0 0-3.5L15.358 8.35a.9.9 0 0 1-.575-.575L13.316 3.27A1.84 1.84 0 0 0 11.566 2"/></svg>
